X:735
T:Metal bridge
R:Jig
O:Ireland
S:Music from Ireland Vol. 3
B:Music from Ireland Vol. 3
Z:Transcription, chords:Mike Long
M:6/8
L:1/8
K:G
"G"GFG BAG|"D"A2B cBA|"G"B2d gdB|"C"AGA "D"cBA|\
"G"GFG BAG|"D"A2B cBA|"D"f/g/af "C"gdB|"D"AGA cBA:|
|:"G"B2d gdB|dGB dgd|B2d gdB|"D"AGA cBA|\
"G"B2d gdB|dGB def|"G"gfe "C"dcB|"D"AGA cBA:|
